X:1
T:6 Mélodies et une havanaise (1880)
T:Hai Luli  (Soprano ou Ténor)
T:Pauline Viardot (1821 -1910)
T:Xavier de Maistre (1763 -1852)
T:4. HAI LULI!
T: 6 Mélodies et une havanaise (1880)
T:Creative Commons copyright waiver (CC0 1.0 Universal)
T:Creative Commons copyright waiver (CC0 1.0 Universal)
T:Creative Commons copyright waiver (CC0 1.0 Universal)
T:Creative Commons copyright waiver (CC0 1.0 Universal)
T:Creative Commons copyright waiver (CC0 1.0 Universal)
C:Pauline Viardot (1821 -1910)
Z:Xavier de Maistre (1763 -1852)
Z:Creative Commons copyright waiver (CC0 1.0 Universal)
%%score 1 { ( 2 3 ) | ( 4 5 ) }
L:1/8
Q:1/4=68
M:6/8
K:C
V:1 treble nm="Soprano"
V:2 treble nm="PIANO."
V:3 treble 
V:4 bass 
V:5 bass 
V:1
"^Andante." z3[Q:1/4=74] | z6[Q:1/4=80] | z6[Q:1/4=74] | %3
w: |||
"^Chant.""^Voice soprano / tenor" z6[Q:1/4=70][Q:1/4=66] | z2 z!p! e2 e | d2 d A B A | %6
w: |Je suis|tris- te, je m'in- qui-|
 c2 !breath!A A ^G A | B2 B d2 d | B2 z ^c d e | (e2 d) ^c d e | f3- f z z | %11
w: è- te, Je ne sais|plus que de- ve-|nir, Mon bon a-|mi _ de- vait ve-|nir, _|
 z2 z[Q:1/4=62] A =B c | (c2 A) z2 z | z2 z[Q:1/4=58]!<(! B c d!<)! | %14
w: Et je l'at-|tends _|i- ci seu-|
[Q:1/4=52]"^rit."!>(! d3 ^d3!>)! ||[K:A]!p![Q:1/4=60] e2 c f2 z | d2 B e2 z | A B c (ed) c | %18
w: let- te.|Hai lu- li!|Hai lu- li!|Où donc peut ê- * tre|
 (cB) A B2 z | e2 c =f2 z |[Q:1/4=56] d2 B!<(! e3-!<)! |[Q:1/4=52] e2 z!<(! A =B =c | %22
w: mon * a- mi?|Hai lu- li!|Hai lu- li!|* Où donc peut|
 (de)!<)!!>(! =f[Q:1/4=50]{AB} A2 ^G!>)! ||[K:C] A2 z[Q:1/4=68] z2 z[Q:1/4=60][Q:1/4=80] | z6 | %25
w: ê- * tre mon a-|mi?||
 z6 |[Q:1/4=68] z2 z e2 e | d2 A A B A | c2 A z z/ A/ ^G/ A/ | B2 B d2 d | B3 z z A | %31
w: |Je m'as-|sieds pour fi- ler ma|lai- ne, Le fil se|cas- se dans ma|main... Al-|
 A2 z z/ A/ ^G/ A/ =B/ ^c/ | d3 z[Q:1/4=64] A =B | c z c B c[Q:1/4=58] d | d3 ^d3 || %35
w: lons, je fi- le- rai de-|main; Au- jour-|d'hui je suis trop en|pei- ne!|
[K:A][Q:1/4=64] e2 c f2 z | d2 B e2 z | (AB) c (ed) c | c B A B2 z | %39
w: Hai lu- li!|Hai lu- li!|Qu'il * fait tris- * te|sans son a- mi!|
!mp![Q:1/4=60]"^cre    _       _       _   scen     _       _       _    do" e2 c !breath!=f3 | %40
w: Hai lu- li!|
 =f2 d!f! =g3- |!>(! =g2!>)! z[Q:1/4=56] (A_B) =c |[Q:1/4=50]"^rall." d e =f{AB} A2 G || %43
w: Hai lu- li!|_ Qu'il * fait|tris- te sans son a-|
[K:C][Q:1/4=70]"^en mesure." A2[Q:1/4=74] z z2 z |[Q:1/4=82] z6 | z6 | %46
w: mi !|||
[Q:1/4=88]"^avec agitation." z2 z e2 e | d2 d A B3/2 A/ | c2 !breath!A A G A | _B2 B !^!_d2 d | %50
w: Si ja-|mais il de- vient vo-|la- ge, S'il doit un|jour m'a- ban- don-|
 c3 z z c/ c/ | c2 _B z z/ =B/ c/ d/ | c2 z z ^c3/2"^cresc." c/ | d2- d/ d/ e2 e/ e/ | %54
w: ner, Le vil-|la- ge n'a qu'à brû-|ler, Et moi|mê- * me a- vec le vil-|
!f!!>(! f3- f2!>)! !breath!f ||[K:A]!pp![Q:1/4=66]"^un peu plus lent." e2 c f3 | %56
w: la- * ge !|Hai lu- li !|
 d2 B[Q:1/4=60] e3 |!<(! A c e!<)!!mf! (=g=f) e |!>(! (ed) A!>)! B2 z | %59
w: Hai lu- li !|A quoi bon vi- * vre|sans * a- mi ?|
[Q:1/4=56] e2"^cresc :" c =f3 |[Q:1/4=50] =g2 e!f! a3- | a z z[Q:1/4=44]"^plus lent." A B =c | %62
w: Hai lu- li !|Hai lu- li!|* A quoi bon|
 (d[Q:1/4=40]e) (=f!p!{A)B} A2 ^G |[Q:1/4=50] (A6 | A) z z z2 z | z6 |] %66
w: vi- * vre sans a-|mi ?|_||
V:2
!p! z/ [c'e']/z/[ac']/z/[ac']/ | z/ [ac']/z/[ea]/z/[ea]/ z/ [fa]/z/[fa]/z/[e^g]/ | %2
w: ||
!<(! z/ [ca]/z/[ce]/z/[Ac]/ z/ [Ac]/z/[EA]/z/!<)![EA]/ | %3
w: |
 z/!>(! [DA]/z/[FA]/z/[E^G]/ z!>)! (C/E/)A | z (C/E/)A z (C/E/)A | z (D/F/)A z (D/F/)A | %6
w: |||
 z (C/E/)A z (C/^D/)A | z (B,/E/A) z (B,/F/A) | z (B,/E/^G) z (^C/E/A) | z (D/F/A) z (^C/G/A) | %10
w: ||||
 z (_B,/F/_B) (ABc) | (c2 _B) z (C/D/F) | z (C/E/A) (Bcd) | (d2 B) z (D/A/B) | [^Gd]3 z2 z || %15
w: ||||suivez.|
[K:A]!p! !arpeggio![EAce]2 z !arpeggio![FAcf]2 z | !arpeggio![DFBd]2 z !arpeggio![EGBe]2 z | %17
w: ||
!<(![I:staff +1] (C,/E,/A,/[I:staff -1] C/E/A/)[I:staff +1] (B,,/=F,/A,/[I:staff -1] D/=F/A/)!<)! | %18
w: |
!>(![I:staff +1] (D,/A,/B,/[I:staff -1] =F/A/B/)[I:staff +1] (E,/B,/E/[I:staff -1] G/d/) z/!>)! | %19
w: |
!p! !arpeggio![EAce]2 z !arpeggio![=FAd=f]2 z | !arpeggio![D=GBd]2 z !arpeggio![EG_Be]3- | %21
w: ||
 [E=Ge] z z z (=C/=F/A) | z (_B,/=F/_B) z ([=B,EA]G) || %23
w: ||
[K:C] [CA] z/ [ac']/z/[ac']/ z/ [ac']/z/[ea]/z/[ea]/ | %24
w: |
 z/ [fa]/z/[fa]/z/[e^g]/ z/!<(! [ce]/z/[Ac]/z/[Ac]/ | %25
w: |
 z/ [Ac]/z/[EA]/!<)!z/[EA]/ z/!>(! [FA]/z/[FA]/z/[E^G]/!>)! | z/ (C/E/A/E/C/) z/ (C/E/A/E/C/) | %27
w: ||
 z/ (D/F/A/F/D/) z/ (C/F/A/F/C/) | z/ (C/E/A/E/C/) z/ (C/^D/A/D/C/) | %29
w: ||
 z/ (B,/E/A/E/B,/) z/ (B,/F/A/F/B,/) | z/ (B,/E/^G/E/B,/){EA} (^cde) | (e2 d) [^CGA]2 z | %32
w: |||
 z/ (_B,/F/_B/F/B,/) z [CFA]2 | z/ (C/E/A/E/C/) z [DAB]2 | [^Gd]3 z2 z || %35
w: |||
[K:A]!p! !arpeggio![EAce]3 !arpeggio![FAcf]3 | !arpeggio![DFBd]3 !arpeggio![EGBe]3 | %37
w: ||
[I:staff +1] (=G,/A,/C/[I:staff -1] E/A/c/)[I:staff +1] (=F,/A,/B,/[I:staff -1] D/=F/A/) | %38
w: |
[I:staff +1] (D,/A,/B,/[I:staff -1] D/=F/A/)[I:staff +1] (E,/B,/E/[I:staff -1] G/d/e/) | %39
w: |
 !arpeggio![EAce] z z !arpeggio![=FAd=f] z z | !arpeggio![=F_Bd=f] z z (!arpeggio![=G-B-_d-=g]3 | %41
w: ||
 [=G_d=g]) z z z/ (=C/=F/A/F/C/) | z/ (_B,/=F/_B/F/B,/) z (A^G || %43
w: ||
[K:C] [=CA]) z/ [ac']/z/[ac']/ z/ [ac']/z/[ea]/z/[ea]/ | %44
w: |
 z/ [fa]/z/[fa]/z/[e^g]/ z/ [ca]/!<(!z/[ce]/z/[Ac]/ | %45
w: |
 z/ [Ac]/z/[EA]/z/!<)![EA]/!>(! z/ [DA]/z/[FA]/z/[E^G]/!>)! | %46
w: |
 z/ [CA]/z/[DA]/z/[EA]/ z/ [A,CA]/z/[A,DA]/z/[A,EA]/ | %47
w: |
 z/ [A,DA]/z/[A,EA]/z/[A,FA]/ z/ [A,DA]/z/[A,EA]/z/[A,FA]/ | %48
w: |
 z/!<(! [A,E][A,F][A,G] [A,A]!<)![A,G][A,_G]/ | z/ [_B,F_B][B,FB][B,FB]/ z/ [_DFB][DFB][DFB]/ | %50
w: ||
 z/ [CGc]/z/[Gc]/z/[Gc]/ A/_G/_B/G/c/G/ | %51
w: |
"_cre   -            -            -            -            -      scen   -        -         -        -        -" c2 _B =Bcd | %52
w: |
 d2 c ^cde | eae eae |!f! !arpeggio!!fermata![Acfa]3- [Acfa] z z || %55
w: |||
[K:A] !arpeggio![EAce]2 !arpeggio![EAc] !arpeggio![FAcf]2 !arpeggio![FAc] | %56
w: |
 !arpeggio![DFBd]2 !arpeggio![DFB] !arpeggio![EGBe]2 !arpeggio![EGB] | x6 | x6 | %59
w: |||
 !arpeggio![EAce]2 !arpeggio![EAc] !arpeggio![=FGB=f]2 !arpeggio![FGB] | %60
w: |
 !arpeggio![=G_Be=g]2 !arpeggio![GBe] (!arpeggio![A-=c^d-a-]3 | [=A^da]) z z z/ (=C/E/A/E/C/) | %62
w: ||
 z/ (B,/=F/A/F/B,/) z/ (B,/E/A/) [B,E^G] | z/ [Ac][Ac][Ac]- [Ac][EA]([EA-]/ | %64
w: ||
 [DA]/)[CE][CE][A,C]/- [A,C]3 | [A,CA]3- [A,CA] z z |] %66
w: ||
V:3
 agf | x6 | AGF EDC | x6 | x6 | x6 | x6 | x6 | x6 | x6 | x6 | x6 | x3 A3 | ^G3 x3 | x6 ||[K:A] x6 | %16
 x6 | x6 | x6 | x6 | x6 | _B x5 | x6 ||[K:C] x (gf edc | BdE) A=GF | EDC x3 | x6 | x6 | x6 | x6 | %30
 x6 | x6 | x6 | x6 | x6 ||[K:A] x6 | x6 | x6 | x6 | x6 | x6 | x6 | x4 [=B,E]2 ||[K:C] x gf edc | %44
 BdE A=GF | EDC[I:staff +1] B,DE, | A,,B,,C, A,,B,,C, | x6 | x6 | x6 |[I:staff -1] x3 A_Bc | %51
 c/F/c/F/_B/A/ =B/_A/c/A/d/A/ | d/G/d/G/c/G/ ^c/_B/d/B/e/B/ | e/A/a/A/e/A/ e/A/a/A/e/A/ | x6 || %55
[K:A] x6 | x6 | x6 | x6 | x6 | x6 | x6 | x6 | x GF EDC | x6 | x6 |] %66
V:4
 x3 |[I:staff -1] edc BdE |[I:staff +1] x6 | (B,DE, [A,,A,]2) z | A,2 z A,,3 | D,3 F,3 | A,3 ^F,3 | %7
 E,3 D,3 | E,3 =G,3 | F,3 E,3 | D,3 (_E,A,/C/_G) | (D,F,/)_B,/D ^D,3 | E,3 (F,A,/B,/D) | %13
 (E,B,/D/E) F,3 | [E,B,]3 z2 z ||[K:A]!ped! (A,,E,/)A,/C (D,!ped-up!F,/)A,/C | %16
 (G,,D,/)F,/B, (C,E,/)G,/B, | x6 | x6 |!ped! (A,,E,/A,/C)!ped-up! (D,A,/D/=F) | %20
 (=G,,D,/=F,/!ped!B,) C,/=G,/_B,/C/=G/ z/ | x!ped-up! z z =F,2 z | D,2 z E,3 ||[K:C] [A,,E,] x x4 | %24
 x6 | x3 B,DE, | [A,,A,]2 z A,,2 z | D,2 z F,2 z | A,2 z !>!^F,3 | E,3 D,3 | %30
 E,2 z (=G,/A,/^C/E/C/A,/) | (F,/A,/D/F/D/A,/) E,2 z | D,2 z ^D, z z | E,2 z F, z z | %34
 [E,B,]3 z2 z ||[K:A]!ped! (A,,/E,/A,/C/A,/!ped-up!E,/)!ped! (D,/F,/A,/C/A,/F,/)!ped-up! | %36
 (G,,/D,/F,/B,/F,/D,/) (C,/E,/G,/B,/G,/E,/) | x6 | x6 | %39
 (A,,/E,/=G,/C/G,/E,/) (D,/=F,/A,/D/A,/F,/) | %40
 (_B,,/=F,/_A,/D/_A,/F,/)!ped! (E,,/B,,/_D,/=G,/_B,/_D/ | %41
[I:staff -1] _B)!ped-up![I:staff +1] z z =F,3 | D,3 E,3 ||[K:C] A,, x x4 | x6 | x6 | x6 | %47
 B,,C,D, B,,C,D, | C,D,E, F,E,_E, | _D,F,D, _B,,F,B,, | E,CE,x/A,/C/A,/C/A,/ | %51
x/_B,/D/B,/D/B,/x/=B,/D/B,/D/B,/ |x/C/E/C/E/C/x/^C/E/C/E/C/ | E,3 E,3 | %54
 !arpeggio!!fermata![^D,A,CF]3- [D,A,CF] z z || %55
[K:A]!pp!!ped! (A,,/E,/A,/C/A,/!ped-up!E,/)!ped! (D,/F,/A,/C/A,/F,/)!ped-up! | %56
!ped! (G,,/D,/F,/B,/F,/!ped-up!D,/)!ped! (C,/E,/G,/B,/G,/E,/)!ped-up! | %57
!<(! (C,/E,/A,/[I:staff -1] C/E/!ped!A/)[I:staff +1] (B,,/=F,/A,/[I:staff -1] D/=F/!<)!A/) | %58
!mf!!>(![I:staff +1] (=F,/A,/B,/[I:staff -1] D/A/B/)!ped-up![I:staff +1] (E,/B,/E/[I:staff -1] G/d/e/)!>)! | %59
!ped![I:staff +1] (A,,/E,/=G,/C/G,/E,/)!ped-up!!ped! (D,/^G,/B,/D/B,/G,/)!ped-up! | %60
!ped! (=C,/=G,/_B,/E/B,/G,/)!ped-up!!ped! (^F,,/C,/^D,/A,/=C/^D/ | %61
[I:staff -1] c)!ped-up![I:staff +1] z z!p! E,3 | D,3"^suivez." E,3 |!ped! A,, x x4 | B,A,E, A,,3 | %65
 E,3- E, z!ped-up! z |] %66
V:5
 x3 | x6 | x6 | x6 | x6 | x6 | x6 | x6 | x6 | x6 | x6 | x6 | x6 | x6 | x6 ||[K:A] x6 | x6 | x6 | %18
 x6 | x6 | x6 | x6 | x6 ||[K:C] x6 | x6 | x6 | x6 | x6 | x6 | x6 | x6 | x6 | x6 | x6 | x6 || %35
[K:A] x6 | x6 | x6 | x6 | x6 | x6 | x6 | x6 ||[K:C] x6 | x6 | x6 | x6 | x6 | x6 | x6 | x3 _E,3 | %51
 D,3 F,3 | E,3 G,3 |x/A,/C/A,/C/A,/x/A,/C/A,/C/A,/ | x6 ||[K:A] x6 | x6 | x6 | x6 | x6 | x6 | x6 | %62
 x6 | x6 | x3 x F,2 | A,,3- A,, x2 |] %66

